X:18
T: Een stuck van liefde moet ik u verhalen
N: L0081
O: Europa, Mitteleuropa, Deutschland
N: Coussemaker Nr. 51
R: Lied
M: 2/4
L: 1/8
K: A
A2BB | =c3B | A=GAE | E2D2
=G2GG | A3A | =GAG=F | E4
A2BB | =c3B | A=GAE | E2D2
=G2GG | A3A | =GAG=F | E4
E2E=F | E2D2 | =G2AB | A2=G
G | AABB | =c3B | BAAG | A4

